www/src/assets/featured-sites-icons--white.svg

<svg xmlns="http://www.w3.org/2000/svg" xmlns:xlink="http://www.w3.org/1999/xlink" width="16" height="16" viewBox="0 0 16 16">
  <defs>
    <path id="custom-preset-a" d="M6.79310345,12.9655172 L5.4137931,16 L4.03448276,12.9655172 L1,11.5862069 L4.03448276,10.2068966 L5.4137931,7.17241379 L6.79310345,10.2068966 L9.82758621,11.5862069 L6.79310345,12.9655172 Z M13.0717241,8.20965517 L12.0344828,10.4827586 L10.9972414,8.20965517 L8.72413793,7.17241379 L10.9972414,6.13517241 L12.0344828,3.86206897 L13.0717241,6.13517241 L15.3448276,7.17241379 L13.0717241,8.20965517 Z M7.20873563,2.8983908 L6.51724138,4.4137931 L5.82574713,2.8983908 L4.31034483,2.20689655 L5.82574713,1.5154023 L6.51724138,0 L7.20873563,1.5154023 L8.72413793,2.20689655 L7.20873563,2.8983908 Z"/>
  </defs>
  <g fill="none" fill-rule="evenodd">
    <use fill="#FFF" xlink:href="#custom-preset-a"/>
  </g>
</svg>

<svg xmlns="http://www.w3.org/2000/svg" xmlns:xlink="http://www.w3.org/1999/xlink" width="16" height="16" viewBox="0 0 16 16">
  <defs>
    <path id="a" d="M6.793 12.966L5.413 16l-1.379-3.034L1 11.586l3.034-1.38 1.38-3.034 1.38 3.035 3.034 1.38-3.035 1.379zm6.279-4.756l-1.038 2.273-1.037-2.273-2.273-1.038 2.273-1.037 1.037-2.273 1.038 2.273 2.273 1.037-2.273 1.038zM7.209 2.898l-.692 1.516-.691-1.516-1.516-.691 1.516-.692L6.517 0l.692 1.515 1.515.692-1.515.691z"/>
  </defs>
  <use fill="#FFF" xlink:href="#a" fill-rule="evenodd"/>
</svg>
